papirus/16x16/mimetypes/text-r.svg

<?xml version="1.0" encoding="UTF-8" standalone="no"?>
<svg
   xmlns:dc="http://purl.org/dc/elements/1.1/"
   xmlns:cc="http://creativecommons.org/ns#"
   xmlns:rdf="http://www.w3.org/1999/02/22-rdf-syntax-ns#"
   xmlns:svg="http://www.w3.org/2000/svg"
   xmlns="http://www.w3.org/2000/svg"
   xmlns:sodipodi="http://sodipodi.sourceforge.net/DTD/sodipodi-0.dtd"
   xmlns:inkscape="http://www.inkscape.org/namespaces/inkscape"
   id="svg2"
   height="16px"
   width="16px"
   version="1.1"
   viewBox="0 0 16 16"
   inkscape:version="0.91 r13725"
   sodipodi:docname="text-r.svg">
  <defs
     id="defs11" />
  <sodipodi:namedview
     pagecolor="#ffffff"
     bordercolor="#666666"
     borderopacity="1"
     objecttolerance="10"
     gridtolerance="10"
     guidetolerance="10"
     inkscape:pageopacity="0"
     inkscape:pageshadow="2"
     inkscape:window-width="1600"
     inkscape:window-height="849"
     id="namedview9"
     showgrid="false"
     inkscape:zoom="11.42"
     inkscape:cx="-12.089317"
     inkscape:cy="5.4699557"
     inkscape:window-x="0"
     inkscape:window-y="0"
     inkscape:window-maximized="1"
     inkscape:current-layer="svg2">
    <inkscape:grid
       type="xygrid"
       id="grid4143" />
  </sodipodi:namedview>
  <metadata
     id="metadata17">
    <rdf:RDF>
      <cc:Work
         rdf:about="">
        <dc:format>image/svg+xml</dc:format>
        <dc:type
           rdf:resource="http://purl.org/dc/dcmitype/StillImage" />
        <dc:title></dc:title>
      </cc:Work>
    </rdf:RDF>
  </metadata>
  <path
     style="fill:#ebe8d7"
     inkscape:connector-curvature="0"
     d="M 2.75,1 C 2.33276,1 2,1.33276 2,1.75 l 0,13.5 C 2,15.667192 2.332808,16 2.75,16 l 10.5,0 C 13.6676,16 14,15.6676 14,15.25 L 14,5.5 9.875,5.125 9.5,1 Z"
     id="path5" />
  <path
     style="fill:#f8f8f0"
     inkscape:connector-curvature="0"
     d="m 9.5,1 0,3.75 c 0,0.41256 0.33744,0.75 0.75,0.75 l 3.75,0 z"
     id="path7" />
  <path
     style="fill:#ffffff;fill-opacity:0.2"
     inkscape:connector-curvature="0"
     d="M 2.75,1 C 2.33276,1 2,1.33276 2,1.75 l 0,0.6 C 2,1.93276 2.33276,1.6 2.75,1.6 l 6.75,0 0,-0.6 z"
     id="path11" />
  <path
     id="path3647"
     d="m 10.199996,11.8573 c 0,0 0.221223,-0.063 0.441857,0.049 0.07656,0.039 0.209017,0.1173 0.304565,0.2198 0.09359,0.1005 0.139226,0.2022 0.139226,0.2022 L 12,15 9.5,15 C 9.5,15 8.932952,13.1338 8.335379,12.3349 8.216478,12.2379 8.116377,11.9836 7.9999981,12.0002 l -1.0001712,0 3.463e-4,2.9983 -2.0001732,0 0,-7.9984997 4.330569,0 c 0.469428,0 2.100004,0.5002 2.169431,2.5002 C 11.43057,11.5002 10.199996,11.8571 10.199996,11.8571 Z m -3.1998228,-2.8575997 0,1.5004997 1.9998238,0 c 0,0 0.515859,-0.044 0.500003,-0.7999997 -0.01506,-0.7177 -0.500003,-0.6995 -0.500003,-0.6995 z"
     inkscape:connector-curvature="0"
     style="display:inline;fill:#000000;fill-opacity:1;fill-rule:evenodd;enable-background:new;opacity:0.5"
     sodipodi:nodetypes="cscccccscccccccccccscc" />
</svg>

<?xml version="1.0" encoding="UTF-8" standalone="no"?>
<svg id="svg2" xmlns:rdf="http://www.w3.org/1999/02/22-rdf-syntax-ns#" xmlns="http://www.w3.org/2000/svg" height="16px" width="16px" version="1.1" xmlns:cc="http://creativecommons.org/ns#" viewBox="0 0 16 16" xmlns:dc="http://purl.org/dc/elements/1.1/">
 <metadata id="metadata17">
  <rdf:RDF>
   <cc:Work rdf:about="">
    <dc:format>image/svg+xml</dc:format>
    <dc:type rdf:resource="http://purl.org/dc/dcmitype/StillImage"/>
    <dc:title/>
   </cc:Work>
  </rdf:RDF>
 </metadata>
 <path id="path5" fill="#ccc" d="m2.75 1c-0.4172 0-0.75 0.3328-0.75 0.75v13.5c0 0.417 0.3328 0.75 0.75 0.75h10.5c0.418 0 0.75-0.332 0.75-0.75v-9.75l-4.125-0.375-0.375-4.125z"/>
 <path id="path7" fill="#f8f8f0" d="m9.5 1v3.75c0 0.41256 0.33744 0.75 0.75 0.75h3.75z"/>
 <path id="path11" fill-opacity=".2" fill="#fff" d="m2.75 1c-0.4172 0-0.75 0.3328-0.75 0.75v0.6c0-0.4172 0.3328-0.75 0.75-0.75h6.75v-0.6z"/>
 <path id="path3647" opacity=".5" style="enable-background:new" d="m10.2 11.857s0.22122-0.063 0.44186 0.049c0.07656 0.039 0.20902 0.1173 0.30456 0.2198 0.09359 0.1005 0.13923 0.2022 0.13923 0.2022l0.914 2.672h-2.5s-0.567-1.866-1.1646-2.665c-0.1189-0.097-0.219-0.351-0.3354-0.335h-1.0002l0.0003463 2.9983h-2.0002v-7.9985h4.3306c0.46943 0 2.1 0.5002 2.1694 2.5002-0.069 2-1.3 2.357-1.3 2.357zm-3.1998-2.8576v1.5005h1.9998s0.51586-0.044 0.5-0.8c-0.01506-0.7177-0.5-0.6995-0.5-0.6995z" fill-rule="evenodd"/>
</svg>
